X:1
T:A Tea Party Song
M:3/4
L:1/8
K:F
 A3/2 c/2| B2 AG FE| F2 G2 A3/2 c/2| B2 A2 G3/2 E/2| F4 Ac| B2A-G FE|\
 F2 G2 Ac| B2 A2 GE| F4 BA| d2 dc BA| G2 G2 AG| F2E-D E/2F/2 G| C4 GA|\
 B2A-G cE| F-G/2-A/2 G2 fe/2-d/2| c2B-A BG| F4||

